X: 20132
T: Jimmy's Return
R: reel
M: 4/4
K: Bminor
|:f2Bc dfed|cAce aece|f2Bc dfed|cdec dB~B2|
f2Bc dfed|cAce aecA|BcdB cdeg|fedc dB~B2:|
|:f2ba f2ed|cAce aece|f2ba f2ed|cdec dB~B2|
f2ba f2ed|cAce aecA|BcdB cdeg|fedc dB~B2:|

